X:1
T:the Earl of Seafield
T:the Earl of Seafield
T:William Marshall
C:William Marshall
%%score { ( 1 3 ) | ( 2 4 ) }
L:1/8
M:3/4
K:F
V:1 treble nm="moderato"
V:3 treble 
V:2 bass 
V:4 bass 
V:1
!f! [Ff]3 [Fc]/f/ [GBe]/d/c/B/ | a3 f/e/ g/f/e/f/ | b2 b/a/c'/b/ a/g/f/e/ | c'4 c>^c | %4
 d2{de} e2 g>f | c2 B2 A2 | G/A/B/c/ ^c/d/e/d/ d/D/B/>G/ | F2 E>G F/E/D/C/ | f3 c/f/ e/d/c/B/ | %9
 a3 f/e/ g/f/e/f/ | b2 b/a/c'/b/ a/g/f/e/ | c'4 c>^c | d2{de} e2{g} f2 | c2 B2 [CA]F/f/ | %14
 e/d/c/B/ A2 [EA]/G/F/>G/ | [B,CG]4 [A,CF]2 || [E,B,C]>[E,B,C] [E,B,C]2 [E,B,C]2 | %17
 b2{b} a/g/a/b/ a>g | gc ef b>a | a2 g>f f/e/{e}d/c/ | [F,C]>[F,C] [F,C]2 [F,C]2 | %21
 [cc']2 b/a/b/c'/ a>g | gc eg b>a | [cfa]2 [ceg]>c [Fd]/c/=B/c/ | fF Ac [cf]>_e | %25
 [Bd]>_e [Ac]>d Bd | gG =Bd g>f | [ce]>f [Bd]>e c>d | aA cf ag | ba c'=b d'd | %30
 f/g/a/b/ a2 [Ba]/g/f/>g/ | [Bcg]4 [Acf]2 |] %32
V:2
 [F,,F,]2 [A,,A,]2 [C,C]2 | [F,,F,]2 [A,,A,]2 [F,,F,]2 | [E,,E,]2 [C,,C,]2 [B,,B,]2 | %3
 [A,,A,]2 [F,,F,]2 [A,,A,]2 | [B,,B,]2 [G,,G,]2 [F,,F,]2 | [E,,E,]2 [C,,C,]2 [F,,F,]2 | %6
 [B,,B,]2 [G,,G,]2 [B,,B,]2 | [C,A,]2 [C,G,]4 | [F,,F,]2 [A,,A,]2 [C,C]2 | %9
 [F,,F,]2 [A,,A,]2 [F,,F,]2 | [E,,E,]2 [C,,C,]2 [B,,B,]2 | [A,,A,]2 [F,,F,]2 [A,,A,]2 | %12
 [B,,B,]2 [G,,G,]2 [F,,F,]2 | [E,,E,]2 [C,,C,]2 [F,,F,][A,,A,] | [B,,B,]2 [C,C]2 [C,,C,]2 | F,,6 || %16
 C,,C,E,,C,G,,C, | C,CF,CA,C | [C,G,B,C]2 [C,G,B,C]2 [C,G,B,C]2 | [C,F,C]2 [C,E,C]2 [C,G,]2 | %20
 F,,F,C,F,C,F, | F,F[G,B,]F[C,A,]F | [B,EG]2 [B,EG]2 [A,CGc]2 | CC,CB, A,G, | %24
 [F,A,C]2 [F,A,C]2 [A,F]2 | [B,F]2 [CF]2 [DF]2 | [G,=B,D]2 [G,D]2 [B,A]2 | [CG]2 [DG]2 [EG]2 | %28
 [E,F,CF]2 [F,CF]2 [F,CF]2 | [G,CE]2 [A,CF]2 [B,DF]2 | [CFA]2 [CFA]2 [C,C]2 | F,6 |] %32
V:3
 x6 |{A} A3 c c2 | c4 c2 |{a} c4 F2 | F2 B2 A2 | G2 G2 F2 | D2 G2 x2 | C2 C4 |{F} F3 E B2 | %9
{A} A3 c c2 | c4 c2 |{c} c4 F2 | F2 B2 A2 | G2 E2 x2 | F2 F2 B,2 | x6 || x6 | x6 | x6 | c2 c2 c2 | %20
 x6 | x6 | x6 | x6 | x6 | x6 | x6 | x6 | x6 | x6 | x6 | x6 |] %32
V:4
 x6 | x6 | x6 | x6 | x6 | x6 | x6 | x6 | x6 | x6 | x6 | x6 | x6 | x6 | x6 | x2 C,2 F,2 || C,,6 | %17
 C,6 | x6 | x6 | F,,6 | F,6 | x6 | x4 C,,2 | x6 | x6 | x6 | x6 | x6 | x6 | x6 | x2 C2 F2 |] %32

